X:1
T:We Will Walk in the Light
T:Rufus R. Morris, ca. 1907
T:We Will Walk in the Light
T:Public Domain
T:Public Domain
T:Public Domain
C:Rufus R. Morris, ca. 1907
Z:Public Domain
%%score ( 1 2 ) ( 3 4 )
L:1/8
M:4/4
K:F
V:1 treble 
V:2 treble 
V:3 bass 
V:4 bass 
V:1
 [CF][CG] | [FA][FA] [FG]>F [Fc]2 [Fc][Fc] | [FA]F [FA]>[Fc] [Af]2 [Bf]>[Bd] | %3
w: 1.~’Tis re-|li- gion that can give Sweet- est|sures while we live, We will walk|
w: 2.~Af- ter|death its joys will be Last- ing|e- ter- ni- ty, We will walk|
 [Ac]2 [FA][Fc] [Fd]2 [Fc]2 | [EG]6 [EA][EG] | [DF][DF] [DF]>[EG] [FA]2 [Fc][Fc] | %6
w: the light of God; ’Tis|re- li- gion|can sup- ply Sol- id com- fort|
w: the light of God; Be|the liv- ing|God my friend, Then my bliss shall|
 [FA]F [FA]>[Fc] [Af]2 [Bf]>[Bd] | [Ac]2 [FA]F [FA]2 [EG]2 | F6 ||"^Refrain" [FA]F | [Fc]6 [FA]F | %11
w: when we die, We will walk in|light of God. In the|in|light, We|walk in the|
w: ne- ver end, We will walk in|light of God. * *||||
 [Af]6 [Bf]>[Bd] | [Ac]2 [FA][Fc] [Fd]2 [Fc]2 | [EG]6 [FA]F | [Fc]6 [Af][Af] | (f4 d2) [Bf]>[Bd] | %16
w: of God; In|the light, in the light,|We will walk|the light of|God. * * *|
w: |||||
 [Ac]2 [FA]F [FA]2 (EE) | (FF (3CDD C2) |] %18
w: ||
w: ||
V:2
 x2 | x7/2 F/ x4 | x F x6 | x8 | x8 | x8 | x F x6 | x3 F x4 | F6 || x F | x7 F | x8 | x8 | x7 F | %14
w: |plea-|in||||the|light,|the|will|light|||in|
w: |as|in||||the||||||||
 x8 | G6 x2 | x3 F x G2 x | F6 |] %18
w: ||||
w: ||||
V:3
 [F,A,][F,B,] | [F,C][F,C] [F,B,]>[F,A,] [F,A,]2 [F,A,][F,A,] | %2
w: ~ ~|~ ~ ~ ~ ~ ~ ~|
 [F,C][F,A,] [F,C]>[F,A,] [F,C]2 [B,D]>[B,F] | [F,F]2 [F,C][A,C] B,2 [A,C]2 | C6 [C,C][C,B,] | %5
w: ~ ~ ~ ~ ~ ~ ~|~ ~ ~ ~ ~|~ ~ ~|
 [D,A,][D,A,] [D,A,]>[C,C] [F,C]2 [F,A,][F,A,] | [F,C][F,A,] [F,C]>[F,A,] [F,C]2 [B,D]>[B,F] | %7
w: ~ ~ ~ ~ ~ ~ ~|~ ~ ~ ~ ~ ~ ~|
 [F,F]2 [F,C][F,A,] [C,C]2 [C,B,]2 | [F,,F,A,]6 || [F,C][F,A,] | %10
w: ~ ~ ~ ~ In|the|light, beau-|
 [F,A,]2 (3[F,A,][F,A,][F,A,] [F,A,]2 [F,C][F,A,] | [F,C]2 (3[F,C][F,C][F,C] [F,C]2 [B,D]>[B,F] | %12
w: ti- ful light, In the light, beau-|ti- ful light, ~ ~ ~ ~|
 [F,F]2 [F,C][A,C] B,2 [A,C]2 | C6 [F,C][F,A,] | [F,A,]2 (3[F,A,][F,A,][F,A,] [F,A,]2 [F,C][F,_E] | %15
w: ~ ~ ~ ~ In|light, beau- ti-|light, In the light, beau- ti- ful|
 [B,D]2 (3[B,D][B,D][B,D] [B,F]2 [B,D]>[B,F] | [F,F]2 [F,C][F,A,] [C,C]2 B,B, | %17
w: light, ~ ~ ~ ~ ~ ~|In the beau- ti- ful light|
 A,A, (3A,B,B, A,2 |] %18
w: God. * * * * *|
V:4
 x2 | x8 | x8 | x4 B,2 x2 | C6 x2 | x8 | x8 | x8 | x6 || x2 | x8 | x8 | x4 B,2 x2 | C6 x2 | x8 | %15
w: |||~|~||||||||the|ful||
 x8 | x6 C,2 | [F,,F,]6 |] %18
w: |of||

